X: 1
T: Vid f\"arjestaden
C: Sven Scholander
R: waltz
M: 3/4
L: 1/8
K: A
E2 | A4 c2 | e4 A2 | G2-G2 A2 | B4 EE | B4 c2 | d4 EE | A4 B2 | c2 z2 E-E |
w: \"Ar n\"ak-ter-ga-len kom-men i lund? fa-de-ral-lan-la, fa-de-ral-lan-la, O
     A4  c2 | e4 AA | G4 A2 |
w: ja, min kund, fa-de-ral-lan-
